file/nissay.svg

<svg clip-rule="evenodd" fill-rule="evenodd" stroke-linejoin="round" stroke-miterlimit="1.41421" viewBox="0 0 560 400" xmlns="http://www.w3.org/2000/svg"><g fill-rule="nonzero"><path d="m276.05 18.138v15.75h35.5v8.75h-27.125c5.375 11.75 19.75 32.875 29.375 43.625v14c-8-7.375-28-34.125-37.75-52.875v37.5h21.25v8.75h-21.25v17.625h-10v-17.75h-21.25v-8.75h21.25v-37.5c-9.625 18.75-30 45.625-38 53v-13.875c9.625-10.875 24.25-31.875 29.625-43.75h-27.125v-8.75h35.5v-15.75zm-62.05 5.762v85h-64.625v-85zm274.388 35.413v32.25c0 7.875-2 11.625-10.625 11.625h-9.875v-8.125h6c3.75-.001 5.625-.251 5.625-3.25v-24.5h-15.125v41.375h-9.125v-49.375zm-119.901-39.05v16.25h29.25v8.375h-29.25v19.375h27.125v8.375h-27.125v24.125h32.5v8.375h-77.125v-8.375h34.625v-24.125h-27.375v-8.5h27.375v-19.375h-20.125c-3.875 8.125-9.5 16.875-15 23.625v-15.125c7.125-10.75 10.625-22.5 12.875-30.5h9.625c-.125 1.501-2.125 8.375-4 13.75h16.625v-16.25zm79.901 39.05v43.875h-31.5v-43.875zm-244.513 41.087v-30.875h-44.625v30.875zm235.388-5.337v-27.75h-13.375v27.75zm-235.388-34.038v-28.625h-44.625v28.625zm254.888-40.712c11 10 24.375 19.125 36.25 25.375v9.25c-1.376-.5-8.75-4.25-15.251-8v5.375h-53.875v-5.625c-6.499 3.75-13.874 7.5-15.375 8.125v-9.375c14-7.75 25-15.25 36.125-25.125zm16.5 24-.625-.375c-5.625-3.625-15-10.5-21.875-16.125-7.875 6.125-16.5 12.25-22.25 15.875-.25.25-.5.375-.875.625z" fill="#231f20" transform="matrix(.7347128 0 0 .7347128 96.3081 152.44124928)"/><path d="m379.2 363.7v39.9l-11.7-11.7-28.2 11.7v-39.9l11.7 11.6zm19.9 19.9-39.9-39.9-39.9 39.9 39.9 39.9z" fill="#ed1c24" transform="matrix(.918391 0 0 -.918391 -193.24221448 542.39006788)"/><path d="m22.775 109.963v18.125l-11-10.5v9.875h-3.625v-18.25l11 10.5v-9.75zm24.35 2.437c-1 .125-1.75.875-1.75 1.875 0 .625.25 1.125.75 1.5.375.25.875.5 1.375.75.375.125.875.375 1.25.5 2 1 2.75 2 3.375 3.25.25.625.375 1.125.375 1.75 0 3.125-2.625 5.625-5.875 5.625-1.625 0-3-.5-4.25-1.25v-3.625c.875.875 2.25 1.75 3.75 1.75 1.75 0 2.75-1.25 2.75-2.375 0-.75-.5-1.5-1.5-2-1.125-.625-2.5-1.125-3.25-1.75-1.375-.875-2.125-2.375-2.125-4.125 0-2.75 2.5-5.125 5.5-5.125 1.375 0 2.75.5 3.75 1v3.75h-.25c-.875-.875-2.125-1.5-3.375-1.5zm16.313 0c-1.001.125-1.875.875-1.875 1.875 0 .625.375 1.125.875 1.5.375.25.875.5 1.375.75.375.125.75.375 1.125.5 2 1 2.75 2 3.375 3.25.25.625.375 1.125.375 1.75 0 3.125-2.625 5.625-5.875 5.625-1.625 0-3.125-.5-4.25-1.25v-3.625c.875.875 2.25 1.75 3.75 1.75 1.75 0 2.75-1.25 2.75-2.375 0-.75-.625-1.5-1.375-2-1.125-.625-2.5-1.125-3.25-1.75-1.375-.875-2.25-2.375-2.25-4.125 0-2.75 2.5-5.125 5.625-5.125 1.375 0 2.75.5 3.625 1v3.75h-.125c-.875-.875-2.125-1.5-3.375-1.5zm33.037 3.438 3.25-5.875h4.125l-5.625 9.25v8.25h-3.625v-8.25l-5.625-9.25h4.25zm-61.975-5.938v17.5h-3.625v-17.5zm41.888 17.45 3.875-10.125 3.875 10.125h3.875l-7.75-18.375-7.75 18.375z" fill="#4f4c4d" transform="matrix(.7347128 0 0 .7347128 96.3081 152.44124928)"/></g></svg>

<?xml version="1.0" encoding="UTF-8" standalone="no"?>
<!DOCTYPE svg PUBLIC "-//W3C//DTD SVG 1.1//EN" "http://www.w3.org/Graphics/SVG/1.1/DTD/svg11.dtd">
<svg width="100%" height="100%" viewBox="0 0 560 400" version="1.1" xmlns="http://www.w3.org/2000/svg" xmlns:xlink="http://www.w3.org/1999/xlink" xml:space="preserve" xmlns:serif="http://www.serif.com/" style="fill-rule:evenodd;clip-rule:evenodd;stroke-linejoin:round;stroke-miterlimit:1.41421;">
    <g transform="matrix(0.918391,-3.78245e-32,3.78245e-32,-0.918391,96.3081,925.653)">
        <g id="path646" transform="matrix(0.8,0,0,-0.8,0,841.92)">
            <path d="M276.05,18.138L276.05,33.888L311.55,33.888L311.55,42.638L284.425,42.638C289.8,54.388 304.175,75.513 313.8,86.263L313.8,100.263C305.8,92.888 285.8,66.138 276.05,47.388L276.05,84.888L297.3,84.888L297.3,93.638L276.05,93.638L276.05,111.263L266.05,111.263L266.05,93.513L244.8,93.513L244.8,84.763L266.05,84.763L266.05,47.263C256.425,66.013 236.05,92.888 228.05,100.263L228.05,86.388C237.675,75.513 252.3,54.513 257.675,42.638L230.55,42.638L230.55,33.888L266.05,33.888L266.05,18.138L276.05,18.138ZM214,23.9L214,108.9L149.375,108.9L149.375,23.9L214,23.9ZM488.388,59.313L488.388,91.563C488.388,99.438 486.388,103.188 477.763,103.188L467.888,103.188L467.888,95.063L473.888,95.063C477.638,95.062 479.513,94.812 479.513,91.813L479.513,67.313L464.388,67.313L464.388,108.688L455.263,108.688L455.263,59.313L488.388,59.313ZM368.487,20.263L368.487,36.513L397.737,36.513L397.737,44.888L368.487,44.888L368.487,64.263L395.612,64.263L395.612,72.638L368.487,72.638L368.487,96.763L400.987,96.763L400.987,105.138L323.862,105.138L323.862,96.763L358.487,96.763L358.487,72.638L331.112,72.638L331.112,64.138L358.487,64.138L358.487,44.763L338.362,44.763C334.487,52.888 328.862,61.638 323.362,68.388L323.362,53.263C330.487,42.513 333.987,30.763 336.237,22.763L345.862,22.763C345.737,24.264 343.737,31.138 341.862,36.513L358.487,36.513L358.487,20.263L368.487,20.263ZM448.388,59.313L448.388,103.188L416.888,103.188L416.888,59.313L448.388,59.313ZM203.875,100.4L203.875,69.525L159.25,69.525L159.25,100.4L203.875,100.4ZM439.263,95.063L439.263,67.313L425.888,67.313L425.888,95.063L439.263,95.063ZM203.875,61.025L203.875,32.4L159.25,32.4L159.25,61.025L203.875,61.025ZM458.763,20.313C469.763,30.313 483.138,39.438 495.013,45.688L495.013,54.938C493.637,54.438 486.263,50.688 479.762,46.938L479.762,52.313L425.887,52.313L425.887,46.688C419.388,50.438 412.013,54.188 410.512,54.813L410.512,45.438C424.512,37.688 435.512,30.188 446.637,20.313L458.763,20.313ZM475.263,44.313L474.638,43.938C469.013,40.313 459.638,33.438 452.763,27.813C444.888,33.938 436.263,40.063 430.513,43.688C430.263,43.938 430.013,44.063 429.638,44.313L475.263,44.313Z" style="fill:rgb(35,31,32);fill-rule:nonzero;"/>
        </g>
        <g id="path662" transform="matrix(1,0,0,1,-315.28,417.32)">
            <path d="M379.2,363.7L379.2,403.6L367.5,391.9L339.3,403.6L339.3,363.7L351,375.3L379.2,363.7ZM399.1,383.6L359.2,343.7L319.3,383.6L359.2,423.5L399.1,383.6Z" style="fill:rgb(237,28,36);fill-rule:nonzero;"/>
        </g>
        <g id="path666" transform="matrix(0.8,0,0,-0.8,0,841.92)">
            <path d="M22.775,109.963L22.775,128.088L11.775,117.588L11.775,127.463L8.15,127.463L8.15,109.213L19.15,119.713L19.15,109.963L22.775,109.963ZM47.125,112.4C46.125,112.525 45.375,113.275 45.375,114.275C45.375,114.9 45.625,115.4 46.125,115.775C46.5,116.025 47,116.275 47.5,116.525C47.875,116.65 48.375,116.9 48.75,117.025C50.75,118.025 51.5,119.025 52.125,120.275C52.375,120.9 52.5,121.4 52.5,122.025C52.5,125.15 49.875,127.65 46.625,127.65C45,127.65 43.625,127.15 42.375,126.4L42.375,122.775C43.25,123.65 44.625,124.525 46.125,124.525C47.875,124.525 48.875,123.275 48.875,122.15C48.875,121.4 48.375,120.65 47.375,120.15C46.25,119.525 44.875,119.025 44.125,118.4C42.75,117.525 42,116.025 42,114.275C42,111.525 44.5,109.15 47.5,109.15C48.875,109.15 50.25,109.65 51.25,110.15L51.25,113.9L51,113.9C50.125,113.025 48.875,112.4 47.625,112.4L47.125,112.4ZM63.438,112.4C62.437,112.525 61.563,113.275 61.563,114.275C61.563,114.9 61.938,115.4 62.438,115.775C62.813,116.025 63.313,116.275 63.813,116.525C64.188,116.65 64.563,116.9 64.938,117.025C66.938,118.025 67.688,119.025 68.313,120.275C68.563,120.9 68.688,121.4 68.688,122.025C68.688,125.15 66.063,127.65 62.813,127.65C61.188,127.65 59.688,127.15 58.563,126.4L58.563,122.775C59.438,123.65 60.813,124.525 62.313,124.525C64.063,124.525 65.063,123.275 65.063,122.15C65.063,121.4 64.438,120.65 63.688,120.15C62.563,119.525 61.188,119.025 60.438,118.4C59.063,117.525 58.188,116.025 58.188,114.275C58.188,111.525 60.688,109.15 63.813,109.15C65.188,109.15 66.563,109.65 67.438,110.15L67.438,113.9L67.313,113.9C66.438,113.025 65.188,112.4 63.938,112.4L63.438,112.4ZM96.475,115.838L99.725,109.963L103.85,109.963L98.225,119.213L98.225,127.463L94.6,127.463L94.6,119.213L88.975,109.963L93.225,109.963L96.475,115.838ZM34.5,109.9L34.5,127.4L30.875,127.4L30.875,109.9L34.5,109.9ZM76.388,127.35L80.263,117.225L84.138,127.35L88.013,127.35L80.263,108.975L72.513,127.35L76.388,127.35Z" style="fill:rgb(79,76,77);fill-rule:nonzero;"/>
        </g>
    </g>
</svg>
